libs/ui/packages/crypto-icons/src/svg/BAND.svg

<svg width="24" height="24" viewBox="0 0 24 24" fill="none">
<path d="M13.6796 9.37805L15.3296 10.3208V5.6063L12.0296 3.9563L6.90262 6.8438V17.097L12.0296 20.0438L17.0974 17.0386V11.9708L12.2059 9.02405L10.5559 9.84905L15.4474 12.7366L15.5059 16.2136L12.0296 18.1583L8.49337 16.1543V7.6688L12.0296 5.72405L13.6796 6.6083V9.37805Z" fill="#516AFF"/>
<path d="M11.8526 12.2063L12.9724 11.6168L14.2099 12.3833L10.5559 14.4458V10.2031L11.8526 10.9688" fill="#516AFF"/>
</svg>

<svg width="24" height="24" viewBox="0 0 24 24" fill="none"><path fill="#516aff" d="m13.68 9.378 1.65.943V5.606l-3.3-1.65-5.127 2.888v10.253l5.127 2.947 5.067-3.005V11.97l-4.891-2.947-1.65.825 4.891 2.888.059 3.477-3.476 1.944-3.537-2.004V7.67l3.537-1.945 1.65.884z"/><path fill="#516aff" d="m11.853 12.206 1.12-.59 1.237.767-3.654 2.063v-4.243l1.297.766"/></svg>
